icons/selection-set-32.svg

<svg id="icons" xmlns="http://www.w3.org/2000/svg" viewBox="0 0 32 32"><defs><style>.cls-1{fill:none;}</style></defs><path d="M9.1,11a3.9,3.9,0,1,0,3.90057-3.9A3.90473,3.90473,0,0,0,9.1,11Zm6.79992,0a2.8999,2.8999,0,1,1-2.89941-2.8999A2.90294,2.90294,0,0,1,15.8999,11ZM13,2C9.80664,2,6,2.895,6,7.1582V22.2533l7,7.04541,4.75-4.78083v1.41858L13,30.71759,5,22.66516V7.15808C5,2.71045,8.58228,1,13,1c4.41766,0,8,1.71045,8,6.15808v8.73761l-1-.72955V7.1582C20,2.895,16.19336,2,13,2ZM31.3584,25,19,15.9834V31.21484l3.45605-4.7373,2.64863,5.51129,3.23242-1.626L25.79688,25Zm-4.3631,4.91852-1.44824.72851-2.93573-6.07965L20,28.14746V17.95117L28.291,24H24.17773Z"/><rect class="cls-1" width="32" height="32"/></svg>

<svg xmlns="http://www.w3.org/2000/svg" viewBox="0 0 32 32"><path d="M9.1 11A3.9 3.9 0 1 0 13 7.1 3.905 3.905 0 0 0 9.1 11zm6.8 0A2.9 2.9 0 1 1 13 8.1a2.903 2.903 0 0 1 2.9 2.9zM13 2c-3.193 0-7 .895-7 5.158v15.095l7 7.046 4.75-4.781v1.418L13 30.718l-8-8.053V7.158C5 2.71 8.582 1 13 1s8 1.71 8 6.158v8.738l-1-.73V7.158C20 2.895 16.193 2 13 2zm18.358 23L19 15.983v15.232l3.456-4.737 2.649 5.51 3.232-1.625L25.797 25zm-4.363 4.919l-1.448.728-2.936-6.08L20 28.147V17.951L28.291 24h-4.113z"/><path fill="none" d="M0 0h32v32H0z"/></svg>
